X: 20511
M: 2/4
L: 1/16
K: F
V: 1 staves=3
(3(cde) |\
fa c2 (dc)df | fa c2 (dc)df | fefg afba | gfed cdec |\
fa c2 (dc)df | fa c2 (dc)df | gfeg f2 z :|
|:\
c6 d2 cBAG | FGAB c2f2 | c6 d2 cBAG | FGAF C2C2 |\
c6 d2 cBAG | FGAB c2f2 | g2gg efge | f2a2f2 :|
V: 2
z2 |\
|:\
V: 3 clef=bass middle=d
z2 |\
f4 f2f2 | f4 f2f2 | f2f2 f2f2 | c2c2 c2c2 |\
f4 f2f2 | f4 f2f2 | c2c2 f2 z :|
|:\
f6 g2 f2f2 | f2f2 f2f2 | f6 g2 f2f2 | f2f2 c2c2 |\
f6 g2 f2f2 | f2f2 f2f2 | c2c2 c2c2 | f2f2f2 :|


